build/documents/FileJPGSolid.svg

<svg xmlns="http://www.w3.org/2000/svg" fill="none" viewBox="0 0 24 24" focusable="false"><path d="M0 0H24V24H0z"/><path fill="#74767B" fill-rule="evenodd" d="M5 11L5 6C5 4.34315 6.34315 3 8 3L13.042 3C13.8752 3 14.671 3.34655 15.2385 3.95662L18.1965 7.13629C18.7129 7.69141 19 8.42148 19 9.17966L19 11C20.6569 11 22 12.3431 22 14L22 18C22 19.6569 20.6569 21 19 21L5 21C3.34315 21 2 19.6569 2 18L2 14C2 12.3431 3.34315 11 5 11ZM13.042 4.3L8 4.3C7.06112 4.3 6.3 5.06112 6.3 6L6.3 11L17.7 11L17.7 9.17966C17.7 9.11913 17.6968 9.05892 17.6904 8.99925L15.2999 8.99926C14.223 8.99926 13.3499 8.12621 13.3499 7.04926L13.3499 4.32811C13.2491 4.30954 13.1461 4.3 13.042 4.3ZM14.6499 5.23254L16.9447 7.69926L15.2999 7.69926C14.9409 7.69926 14.6499 7.40824 14.6499 7.04926L14.6499 5.23254ZM7.98893 13.594C8.34792 13.594 8.63893 13.885 8.63893 14.244L8.63894 16.4613C8.63894 17.5383 7.76589 18.4113 6.68893 18.4113L6.05469 18.4113C5.6957 18.4113 5.40469 18.1203 5.40469 17.7613C5.40469 17.4023 5.6957 17.1113 6.05469 17.1113L6.68893 17.1113C7.04792 17.1113 7.33893 16.8203 7.33893 16.4613L7.33893 14.244C7.33893 13.885 7.62995 13.594 7.98893 13.594ZM10.7672 18.4113C11.1262 18.4113 11.4172 18.1203 11.4172 17.7613L11.4172 17.1888L12.0853 17.1888C13.078 17.1888 13.8828 16.3841 13.8828 15.3914C13.8828 14.3987 13.078 13.594 12.0853 13.594L10.7673 13.594C10.4083 13.594 10.1172 13.885 10.1172 14.244L10.1172 17.7613C10.1172 18.1203 10.4083 18.4113 10.7672 18.4113ZM16.2822 15.5441C16.2822 15.1851 16.5732 14.8941 16.9322 14.8941L17.9452 14.8941C18.3042 14.8941 18.5952 14.6031 18.5952 14.2441C18.5952 13.8851 18.3042 13.5941 17.9452 13.5941L16.9322 13.5941C15.8552 13.5941 14.9822 14.4671 14.9822 15.5441L14.9822 16.4613C14.9822 17.5382 15.8552 18.4113 16.9322 18.4113L17.2452 18.4113C17.9908 18.4113 18.5952 17.8069 18.5952 17.0613L18.5952 16.562C18.5952 16.203 18.3042 15.912 17.9452 15.912C17.5862 15.912 17.2952 16.203 17.2952 16.562L17.2952 17.0613C17.2952 17.0889 17.2728 17.1113 17.2452 17.1113L16.9322 17.1113C16.5732 17.1113 16.2822 16.8203 16.2822 16.4613L16.2822 15.5441ZM11.4172 14.894L11.4172 15.8888L12.0853 15.8888C12.3601 15.8888 12.5828 15.6661 12.5828 15.3914C12.5828 15.1167 12.3601 14.894 12.0853 14.894L11.4172 14.894Z"/></svg>

<svg xmlns="http://www.w3.org/2000/svg" fill="none" viewBox="0 0 24 24" focusable="false"><path fill="#74767B" fill-rule="evenodd" d="M5 11V6c0-1.66 1.34-3 3-3h5.04c.83 0 1.63.34 2.19.95l2.96 3.18c.52.56.81 1.29.81 2.04V11c1.65 0 3 1.34 3 3v4c0 1.65-1.35 3-3 3H5c-1.66 0-3-1.35-3-3v-4c0-1.66 1.34-3 3-3m8.04-6.71H8c-.94 0-1.7.77-1.7 1.71v5h11.4V9.17c0-.06-.01-.12-.01-.18h-2.4c-1.07 0-1.95-.87-1.95-1.95V4.32q-.15-.03-.3-.03m1.6.94 2.3 2.46h-1.65c-.35 0-.65-.29-.65-.65zm-6.66 8.36c.36 0 .65.29.65.65v2.22c0 1.07-.87 1.95-1.95 1.95h-.63c-.36 0-.65-.29-.65-.65s.29-.65.65-.65h.63c.36 0 .65-.29.65-.65v-2.22c0-.36.29-.65.65-.65m2.78 4.82c.36 0 .65-.29.65-.65v-.58h.67c.99 0 1.8-.8 1.8-1.79 0-1-.81-1.8-1.8-1.8h-1.32c-.36 0-.65.29-.65.65v3.52c0 .36.29.65.65.65m5.52-2.87c0-.36.29-.65.65-.65h1.01c.36 0 .65-.29.65-.65s-.29-.65-.65-.65h-1.01c-1.08 0-1.95.87-1.95 1.95v.92c0 1.07.87 1.95 1.95 1.95h.31c.75 0 1.35-.61 1.35-1.35v-.5c0-.36-.29-.65-.65-.65s-.65.29-.65.65v.5c0 .02-.02.05-.05.05h-.31c-.36 0-.65-.29-.65-.65zm-4.87.34v-.99h.67a.495.495 0 1 1 0 .99z"/></svg>
